svgs/sharp-light/head-side.svg

<svg xmlns="http://www.w3.org/2000/svg" viewBox="0 0 512 512"><!--! Font Awesome Pro 6.6.0 by @fontawesome - https://fontawesome.com License - https://fontawesome.com/license (Commercial License) Copyright 2024 Fonticons, Inc. --><path d="M32 224C32 118 118 32 224 32l24 0c88.4 0 160 71.6 160 160l0 7.2 5.4 4.8L480 263.2l0 40.8-48 0-16 0 0 16 0 96-112 0-16 0 0 16 0 64 0 16 32 0 0-16 0-48 112 0 16 0 0-16 0-96 48 0 16 0 0-16 0-64 0-7.2-5.4-4.8-66.8-59.3C436 82 351.6 0 248 0L224 0C100.3 0 0 100.3 0 224c0 61 24.4 116.4 64 156.8L64 496l0 16 32 0 0-16 0-121.9 0-6.8-4.9-4.7C54.6 327.6 32 278.4 32 224zm312 0a24 24 0 1 0 0-48 24 24 0 1 0 0 48z"/></svg>

<svg xmlns="http://www.w3.org/2000/svg" viewBox="0 0 512 512"><!--! Font Awesome Pro 6.4.0 by @fontawesome - https://fontawesome.com License - https://fontawesome.com/license (Commercial License) Copyright 2023 Fonticons, Inc. --><path d="M32 224C32 118 118 32 224 32h24c88.4 0 160 71.6 160 160v7.2l5.4 4.8L480 263.2V304H432 416v16 96H304 288v16 64 16h32V496 448H432h16V432 336h48 16V320 256v-7.2l-5.4-4.8-66.8-59.3C436 82 351.6 0 248 0H224C100.3 0 0 100.3 0 224c0 61 24.4 116.4 64 156.8V496v16H96V496 374.1v-6.8l-4.9-4.7C54.6 327.6 32 278.4 32 224zm312 0a24 24 0 1 0 0-48 24 24 0 1 0 0 48z"/></svg>
